X: 12
U:~=!turn!
M:C
L:1/8
K:D
(F>D) D/D/D A,DDG | (F>D) D/D/D (G/A/B) AG | (F>D) D/D/D A,DD=F | ((3E=FG) (=CE) =cGEC ||
|: Ddd>c dedc | Add>e =fdec | Ddd>c dedA | =cd c2 AG E=C |


